common/svg/overview-icon.svg

<svg fill="none" height="20" viewBox="0 0 20 20" width="20" xmlns="http://www.w3.org/2000/svg"><path d="m1 .875h6.75c.06904 0 .125.055964.125.125v6.75c0 .06904-.05596.125-.125.125h-6.75c-.069036 0-.125-.05596-.125-.125v-6.75c0-.069036.055964-.125.125-.125zm0 11.25h6.75c.06904 0 .125.056.125.125v6.75c0 .069-.05596.125-.125.125h-6.75c-.069036 0-.125-.056-.125-.125v-6.75c0-.069.055964-.125.125-.125zm11.25 0h6.75c.069 0 .125.056.125.125v6.75c0 .069-.056.125-.125.125h-6.75c-.069 0-.125-.056-.125-.125v-6.75c0-.069.056-.125.125-.125zm0-11.25h6.75c.069 0 .125.055964.125.125v6.75c0 .06904-.056.125-.125.125h-6.75c-.069 0-.125-.05596-.125-.125v-6.75c0-.069036.056-.125.125-.125z" stroke="#000" stroke-width="1.75"/></svg>

<svg width="20" height="20" viewBox="0 0 20 20" fill="none" xmlns="http://www.w3.org/2000/svg">
<path d="M1 0.875H7.75C7.81904 0.875 7.875 0.930964 7.875 1V7.75C7.875 7.81904 7.81904 7.875 7.75 7.875H1C0.930964 7.875 0.875 7.81904 0.875 7.75V1C0.875 0.930964 0.930964 0.875 1 0.875ZM1 12.125H7.75C7.81904 12.125 7.875 12.181 7.875 12.25V19C7.875 19.069 7.81904 19.125 7.75 19.125H1C0.930964 19.125 0.875 19.069 0.875 19V12.25C0.875 12.181 0.930964 12.125 1 12.125ZM12.25 12.125H19C19.069 12.125 19.125 12.181 19.125 12.25V19C19.125 19.069 19.069 19.125 19 19.125H12.25C12.181 19.125 12.125 19.069 12.125 19V12.25C12.125 12.181 12.181 12.125 12.25 12.125ZM12.25 0.875H19C19.069 0.875 19.125 0.930964 19.125 1V7.75C19.125 7.81904 19.069 7.875 19 7.875H12.25C12.181 7.875 12.125 7.81904 12.125 7.75V1C12.125 0.930964 12.181 0.875 12.25 0.875Z" stroke="black" stroke-width="1.75"/>
</svg>
